X: 378
T: Beaumont Rag
C:Johnny Gimble version (transposed to D)
B: jims roots
M:4/4
L:1/8
Q: 1/4=100
K:Dmaj
V:1 
"A"ABcA BcAB | cABc- cABc | "D"ABdA BdAB | dABd- dABd |
"A"ABcA BcAB | cABc- cABc | "D"ABdA BdAB | dABd- dABc |
"G"dcde- e3^e | "D"fedB A2 fe | "A"dBAF =GEC2 | "D"[D2F,2]- [D2F,2]- [D2F,2]- [D2F,2]|]
% abcbook-tune_id 6298c24528b680307263867e


% abcbook-boost 0
% abcbook-tablature 
% abcbook-transpose 
% abcbook-lastupdated 1654178373267
% abcbook-soundfonts 
% abcbook-repeats 1


